src/assets/icons/app-dashboard.svg

<svg width="16" height="16" viewBox="0 0 16 16" fill="none" xmlns="http://www.w3.org/2000/svg">
<g clip-path="url(#clip0_8874_15386)">
<path fill-rule="evenodd" clip-rule="evenodd" d="M8.81787 0.57139C8.23998 0.661419 7.71406 1.04862 7.44879 1.57934C7.37591 1.72515 7.3072 1.92681 7.27809 2.08035C7.26111 2.16986 7.25637 2.78918 7.25637 4.92167C7.25637 7.96373 7.24842 7.75142 7.37495 8.08863C7.60329 8.69721 8.1773 9.1636 8.82069 9.26336C8.91532 9.27802 9.67002 9.28179 11.7014 9.2777L14.4539 9.27216L14.613 9.22549C15.3052 9.02242 15.7917 8.5066 15.9551 7.80241C15.9903 7.65068 15.9909 7.61298 15.997 5.08409C16.0034 2.4666 15.9986 2.20965 15.9388 1.96837C15.7546 1.22543 15.1339 0.66966 14.3696 0.563338C14.158 0.533915 9.01054 0.541386 8.81787 0.57139ZM8.96585 2.08129C8.88017 2.12032 8.79381 2.21705 8.76938 2.30137C8.75615 2.347 8.75218 3.12121 8.75577 4.95711L8.76085 7.54846L8.80749 7.61893C8.83313 7.65769 8.89083 7.71097 8.93571 7.73735L9.0173 7.78531L11.5807 7.78986C14.4681 7.79499 14.2648 7.80388 14.3911 7.66687C14.4297 7.62498 14.4674 7.56911 14.4747 7.5427C14.4821 7.51628 14.4881 6.32913 14.4881 4.90458V2.31448L14.4454 2.2383C14.4219 2.19641 14.3693 2.13871 14.3285 2.11008L14.2544 2.05804L11.6444 2.05405C9.14885 2.05024 9.03138 2.05144 8.96585 2.08129ZM1.5577 3.35907C1.05712 3.44301 0.594529 3.74731 0.314559 4.17682C0.13674 4.44961 0.0470188 4.71551 0.0165189 5.0601C-0.00606535 5.31532 -0.00608241 7.28199 0.0165018 7.56012C0.0813312 8.35858 0.607881 8.99824 1.3871 9.22513L1.5462 9.27146L2.92011 9.27703C4.126 9.28191 4.31196 9.27922 4.44073 9.2551C5.22511 9.10812 5.82088 8.48754 5.94069 7.69272C5.97712 7.45111 5.97676 5.1595 5.94026 4.91736C5.81958 4.11673 5.19544 3.48837 4.3913 3.35796C4.1653 3.3213 1.77732 3.32224 1.5577 3.35907ZM1.72583 4.86343C1.64775 4.89728 1.59412 4.9486 1.54881 5.0328C1.51212 5.10096 1.512 5.10507 1.512 6.31502C1.512 7.67307 1.50299 7.57381 1.63739 7.69523C1.6841 7.73742 1.73354 7.76261 1.79662 7.7763C1.86253 7.79061 2.21088 7.79466 3.04213 7.79075L4.19613 7.78531L4.27771 7.73735C4.32259 7.71097 4.38029 7.65769 4.40594 7.61893L4.45257 7.54849L4.45777 6.35048C4.46138 5.51596 4.45726 5.13293 4.44418 5.08807C4.41954 5.00363 4.33314 4.90695 4.24757 4.86808C4.18334 4.83891 4.10371 4.83696 2.98229 4.83723C1.95148 4.83749 1.77727 4.84111 1.72583 4.86343ZM1.62236 10.0352C0.982086 10.118 0.396468 10.569 0.15435 11.1656C0.0101591 11.521 -0.000697039 11.6481 -0.000868003 12.9844C-0.00103897 14.1222 0.0112362 14.3801 0.07651 14.6106C0.252414 15.2316 0.750379 15.7296 1.37142 15.9055C1.60186 15.9707 1.85983 15.983 2.99759 15.9829C4.33389 15.9827 4.46099 15.9718 4.81635 15.8276C5.41501 15.5847 5.84174 15.0339 5.9409 14.376C5.97712 14.1357 5.97661 11.8431 5.94026 11.602C5.81948 10.8007 5.18129 10.1625 4.37995 10.0417C4.2439 10.0212 3.98521 10.017 2.97374 10.0186C2.29202 10.0198 1.68391 10.0272 1.62236 10.0352ZM8.81751 10.0428C8.44631 10.1006 8.10038 10.2767 7.8164 10.5522C7.5073 10.8522 7.31895 11.2302 7.26584 11.6572C7.24093 11.8574 7.24172 14.1288 7.26678 14.3332C7.36111 15.1029 7.91978 15.7326 8.67648 15.9221C8.87105 15.9709 9.17111 15.9827 10.2158 15.9829C11.3536 15.983 11.6116 15.9707 11.842 15.9055C12.3517 15.7611 12.7775 15.4062 13.0105 14.9316C13.1194 14.7097 13.1745 14.511 13.1964 14.2613C13.2182 14.0124 13.2193 11.9717 13.1977 11.7324C13.1672 11.3949 13.0686 11.1161 12.8811 10.8371C12.5836 10.3944 12.1045 10.1011 11.5692 10.034C11.3476 10.0062 9.00439 10.0137 8.81751 10.0428ZM1.74332 11.5399C1.66806 11.5699 1.5895 11.6409 1.55032 11.7142L1.512 11.7859V12.9997C1.512 14.3354 1.50575 14.2539 1.61691 14.3651C1.72808 14.4762 1.64659 14.47 2.98229 14.47H4.19613L4.27231 14.4272C4.3142 14.4037 4.3719 14.3511 4.40053 14.3104L4.45257 14.2363L4.4577 13.0367C4.46128 12.2035 4.45712 11.8175 4.44411 11.7727C4.41956 11.6883 4.33317 11.5916 4.24757 11.5527C4.18332 11.5236 4.10422 11.5217 2.98229 11.5223C2.23764 11.5228 1.76959 11.5294 1.74332 11.5399ZM8.96585 11.5526C8.8802 11.5917 8.79386 11.6884 8.76925 11.7727C8.75617 11.8176 8.75205 12.2011 8.75565 13.0367L8.76085 14.2363L8.81289 14.3104C8.84153 14.3511 8.89923 14.4037 8.94111 14.4272L9.0173 14.47H10.2311C11.5668 14.47 11.4853 14.4762 11.5965 14.3651C11.7077 14.2539 11.7014 14.3354 11.7014 12.9997V11.7859L11.6587 11.7097C11.6352 11.6678 11.5826 11.6101 11.5418 11.5814L11.4677 11.5294L10.251 11.5253C9.10307 11.5215 9.03053 11.523 8.96585 11.5526Z" fill="currentColor"/>
</g>
<defs>
<clipPath id="clip0_8874_15386">
<rect width="16" height="16" fill="white"/>
</clipPath>
</defs>
</svg>

<svg xmlns="http://www.w3.org/2000/svg" width="16" height="16" fill="none">
  <g clip-path="url(#a)">
    <path fill="currentColor" fill-rule="evenodd" d="M8.818.571a1.885 1.885 0 0 0-1.54 1.51c-.017.089-.022.708-.022 2.84 0 3.043-.008 2.83.119 3.168A1.885 1.885 0 0 0 8.82 9.263c.094.015.849.019 2.88.015l2.753-.006.159-.047a1.887 1.887 0 0 0 1.342-1.423c.035-.151.036-.189.042-2.718.006-2.617.002-2.874-.058-3.116a1.879 1.879 0 0 0-1.57-1.405C14.157.533 9.01.541 8.817.571Zm.148 1.51a.397.397 0 0 0-.197.22c-.013.046-.017.82-.013 2.656l.005 2.591.046.07a.462.462 0 0 0 .129.12l.081.047 2.564.005c2.887.005 2.684.014 2.81-.123a.425.425 0 0 0 .084-.124c.007-.027.013-1.214.013-2.638v-2.59l-.043-.077a.466.466 0 0 0-.117-.128l-.074-.052-2.61-.004c-2.495-.004-2.613-.003-2.678.027ZM1.558 3.36c-.5.084-.963.388-1.243.818a1.812 1.812 0 0 0-.298.883c-.023.255-.023 2.222 0 2.5a1.866 1.866 0 0 0 1.37 1.665l.16.046 1.373.006c1.206.005 1.392.002 1.52-.022a1.859 1.859 0 0 0 1.5-1.562c.037-.242.037-2.533 0-2.776a1.862 1.862 0 0 0-1.549-1.559c-.226-.037-2.614-.036-2.833.001Zm.168 1.504a.35.35 0 0 0-.177.17c-.037.068-.037.072-.037 1.282 0 1.358-.009 1.259.125 1.38a.33.33 0 0 0 .16.081c.066.015.414.019 1.245.015l1.154-.006.082-.048a.463.463 0 0 0 .128-.118l.047-.07.005-1.199c.003-.834 0-1.217-.014-1.262a.397.397 0 0 0-.196-.22c-.065-.03-.144-.031-1.266-.03-1.03 0-1.205.003-1.256.025Zm-.104 5.172a1.882 1.882 0 0 0-1.468 1.13c-.144.356-.155.483-.155 1.82 0 1.137.012 1.395.078 1.626a1.894 1.894 0 0 0 1.294 1.294c.23.066.489.078 1.627.078 1.336 0 1.463-.011 1.818-.155a1.853 1.853 0 0 0 1.125-1.452c.036-.24.036-2.533 0-2.774a1.867 1.867 0 0 0-1.561-1.56c-.136-.02-.395-.025-1.406-.023-.682 0-1.29.008-1.352.016Zm7.196.008a1.844 1.844 0 0 0-1.002.51c-.309.3-.497.677-.55 1.104-.025.2-.024 2.472 0 2.676.095.77.654 1.4 1.41 1.59.195.048.495.06 1.54.06 1.138 0 1.396-.012 1.626-.078a1.871 1.871 0 0 0 1.354-1.644c.022-.249.023-2.29.002-2.529a1.826 1.826 0 0 0-.317-.895 1.858 1.858 0 0 0-1.312-.803c-.221-.028-2.565-.02-2.751.009ZM1.743 11.54a.41.41 0 0 0-.193.174l-.038.072V13c0 1.335-.006 1.254.105 1.365.111.111.03.105 1.365.105h1.214l.076-.043a.467.467 0 0 0 .129-.117l.052-.074.005-1.2c.003-.832 0-1.218-.014-1.263a.397.397 0 0 0-.196-.22c-.065-.03-.144-.031-1.266-.03-.744 0-1.212.006-1.239.017Zm7.223.013a.398.398 0 0 0-.197.22c-.013.045-.017.428-.013 1.264l.005 1.2.052.073a.459.459 0 0 0 .128.117l.076.043h1.214c1.336 0 1.254.006 1.366-.105.11-.111.104-.03.104-1.365v-1.214l-.042-.076a.467.467 0 0 0-.117-.129l-.074-.052-1.217-.004c-1.148-.004-1.22-.002-1.285.028Z" clip-rule="evenodd"/>
  </g>
  <defs>
    <clipPath id="a">
      <path fill="#fff" d="M0 0h16v16H0z"/>
    </clipPath>
  </defs>
</svg>
